azure-patterns/svg-bar-chart.svg

<svg xmlns="http://www.w3.org/2000/svg" viewBox="0 0 86 108">
                                
                            
    <polygon fill="#FFFFFF" points="1.559 80.884 84.203 80.884 84.203 2.307 1.559 2.307"></polygon>
    <path d="M0,0.0003 L85.526,0.0003 L85.526,83.0133 L44.264,83.0133 L44.264,92.5483 L58.305,105.0223 L56.312,107.2653 L42.764,95.2283 L29.215,107.2653 L27.222,105.0223 L41.264,92.5483 L41.264,83.0133 L0,83.0133 L0,0.0003 Z M3,80.0143 L82.527,80.0143 L82.527,3.0003 L3,3.0003 L3,80.0143 Z"></path>
    <polygon points="60.366 68.817 69.696 68.817 69.696 22.479 60.366 22.479"></polygon>
    <polygon points="15.116 68.817 24.445 68.817 24.445 48.988 15.116 48.988"></polygon>
    <polygon points="30.199 68.817 39.528 68.817 39.528 54.853 30.199 54.853"></polygon>
    <polygon points="45.283 68.817 54.612 68.817 54.612 39.493 45.283 39.493"></polygon>
</svg>

<svg xmlns="http://www.w3.org/2000/svg" viewBox="0 0 86 108"><path fill="#FFF" d="M1.559 80.884h82.644V2.307H1.559z"/><path d="M0 0h85.526v83.013H44.264v9.535l14.041 12.474-1.993 2.243-13.548-12.037-13.549 12.037-1.993-2.243 14.042-12.474v-9.535H0V0zm3 80.014h79.527V3H3v77.014z"/><path d="M60.366 68.817h9.33V22.479h-9.33zM15.116 68.817h9.329V48.988h-9.329zM30.199 68.817h9.329V54.853h-9.329zM45.283 68.817h9.329V39.493h-9.329z"/></svg>
